X:1
T:Forever at Home
T:Forever at Home
T:Keith Leroy Brooks
T:Keith Leroy Brooks, 1920, alt.
T:Public Domain Courtesy of the Cyber Hymnal™
C:Keith Leroy Brooks
Z:Public Domain
Z:Courtesy of the Cyber Hymnal™
%%score 1 2 3
L:1/8
Q:1/4=100
M:3/4
K:F
V:1 treble 
V:2 treble 
V:3 bass 
V:1
 CC | A4 GF | A4 GF | F3 G F2 | C4 C2 | F4 FF | F2 D2 A2 | G6- | G4 CC | A4 AA | A4 GF | %11
w: 1.~We shall|meet you a-|gain when the|sor- rows of|night For-|ev- er have|van- ished a-|way;|* We shall|stand by your|side in His|
w: 2.~We shall|know in that|throng, as they|sing of His|praise, The|sound of your|voice once a-|gain,|* Free for-|e’er from the|tri- als of|
w: 3.~Haste the|glor- i- ous|day, when our|Lord shall re-|turn, No|long- er a-|part we shall|roam,|* All our|loved ones in|Christ we shall|
 F2 B2 _e2 | d4 d>d | c4 A<!fermata!A!p! |"^riten." c4 F<!fermata!F | B2 D2 E2 | F6- | F4 |] %18
w: glo- ry and|light, Oh, that|beau- ti- ful,|won- der- ful|sha- dow- less|day.||
w: these wea- ri-|some days— A-|way from all|mis- er- y,|sor- row and|pain.||
w: sure- ly dis-|cern— A- t|rest in His|pre- sence, for-|ev- er at|home.||
V:2
 [A,FA][A,FA] | [A,Ac]4 [B,GB][A,FA] | [CAc]4 [B,GB][A,FA] | [DFd]3 [DGd] [_DF_d]2 | %4
 [CAc]4 [A,CA]2 | [A,FA]4 [A,FA][A,FA] | [=B,F=B]2 [B,DB]2 [B,AB]2 | ([CGc]4 [CF=B]2 | %8
 [B,FB]4) [B,EB]2 | [A,CA]4 [^CG^c]2 | [DFd]4 [_EG_e][Fe] | [DFd]2 [FBf]2 [F_ef]2 | %12
 ([Fdf]2 [Gdg]2) [^Gd^g]2 | [Acfa]4 [FAg]<!fermata![FAf] | [Fc]4 [FA]<!fermata![FA] | %15
 [DBd]2 [DB]2 [EAc][EGc] | ([FA]4 [F_A]2 | [FA]4) |] %18
V:3
 z2 | ([F,,,F,,]2 [C,F,A,]4) | ([F,,,F,,]2 [C,F,A,]4) | (B,,2 [F,B,D]2) [F,B,]2 | %4
 ([F,,,F,,]2 [C,F,A,]4) | ([F,,,F,,]2 [C,F,]2) [D,,D,]2 | [G,,,G,,]2 [D,F,]2 [F,G,]2 | %7
 ([E,G,]4 [D,G,]2 | [_D,G,]4) [C,G,]2 | ([F,,,F,,]2 [C,F,A,]2) [E,G,A,]2 | %10
 ([D,,D,]2 [D,F,A,]2) [C,G,A,][C,F,A,] | [C,,B,,]2 [D,B,]2 [C,A,]2 | ([B,,,B,,]2 [B,D]2) [=B,D]2 | %13
 [C,C]4 [C,A,]<!fermata![C,A,] | [C,A,]4 [D,A,]<!fermata![D,A,] | [G,,G,]2 [D,G,B,]2 [C,C][C,B,] | %16
 ([F,,F,]2 [F,C]2 [_D,=B,]2 | [C,A,] [F,,,F,,]3) |] %18

